X:667
T:Siobhan O'Donnell's
C:Siobhan O'Donnell
R:reel
D:Dervish: Harmony Hill
Z:id:hn-reel-667
M:C|
K:A
ABce a2ae|~f3a fece|f2fe cBAF|EFAB cBAF|
E2EA ~c3e|~f3a fece|f2ec dBcA|~B2AB cAAB:|
|:ABce fece|fA~A2 fAeA|fA~A2 fAeA|aAfA eAce|
~f3e cBAF|~E3F ~A3e|f2ec dBcA|~B2AB cAAB:|
